!! 00000] TT[WS
!!!OTL: Hongdu paotai
!!!ARE: Asia, China, Shanxi Zuoquan
!! Ethnic Group: Han
!! WII, 215
!!!SCT: J0720
!!!YEM: Copyright 1995, estate of Helmut Schaffrath.
**kern
*ICvox
*Ivox
*M2/4
*k[f#]
*G:
{8dd
8b
8dd
8ee
=1
8f#
8e
4d
=2
8a
8b
8dd
16b
16dd
=3
2a}
=4
{8dd
8b
8dd
8ee
=5
8f#
8b
8a
8g
=6
8.f#
16e
4d}
=7
{8d
16d
16e
8f#
8e
=8
2d}
==
!!!AGN: Xiaodiao. XÅshi, Sushuo
!!!ONB: ESAC (Essen Associative Code) Database: CHINA
!!!AMT: simple duple
!!!AIN: vox
!!!EED: Helmut Schaffrath
!!!EEV: 1.0
*-
